X: 1
T: CAPTAIN HOLMES' -- JIG
B: Ryan's Mammoth Collection of Fiddle Tunes
R: jig
M: 6/8
L: 1/8
Z: Contributed 20010707134755 by John Chambers jmchambers:rcn.net
K: Edor
ud \
| BGE EGE | EGE BGE | DFA dcB | AFD DB=c \
| BGE EGE | EGE dcB | ABA FGA | BGE E2 :|
|: uB \
| eBe gfe | bge efg | d"4"ed f"0"ed | afd def \
| efe gfe | bge ega | BcB AGF | BGE E2 :|
